X: 276
T: The Green Woods of Truigha
B: O'Neill's 276
N: "Slow"
Z: 1997 by John Chambers <jc@trillian.mit.edu>
M: 3/4
L: 1/8
K:G
D \
|G2 Bd  c/B/A/G/|B2 gf e/d/c/B/|Ac BG BAG|G4 z2|
|G2 Bd c/B/A/G/|B2 gf e/d/c/B/|Ac BG BAG|G4 z||
||d \
|gg fe ag|fe d2 gf|fe3 d Bd|ef ga Hb2|
|G2 Bd c/B/A/G/|B2 gf e/d/c/B/|Ac BG BAG|G4 z||
